X:1
T:Nocturne in C minor (posth.) - French First Edition - 1860
T:NOCTURNE IN C MINOR
T:Frédéric Chopin
T:B.108 (posth.) - French First Edition - 1860
T:Public Domain
T:Public Domain
T:Public Domain
T:Public Domain
C:Frederic Chopin
Z:Public Domain
%%score { 1 | 2 }
L:1/8
Q:1/4=60
M:4/4
K:Eb
V:1 treble nm="Piano."
V:2 bass 
V:1
"^Andante."!p! (G2 | c>de>f g2 g2) | (^f>g{gb}a>g c4) | (d>G{GB}A>G) G2 c2 | %4
 (12:8:12(c/d/c/=B/c/d/e/=e/f/^f/a/g/ d4) | (c>de>f g2 g2) | (^f>g{gb}a>g c4) | %7
 (d>G{GB}A>G) G2 c2 | (5:4:5(d/e/d/c/d/ e>d c2) z G | (c>de>f g2 g2) | (^f>g{gb}a>g c4) | %11
 (d>G{GB}A>G) G2 c2 | (12:8:12(c/d/c/=B/c/d/e/=e/f/^f/a/g/ d4) | (c>de>f g2 g2) | %14
 (^f>g!<(!{gb}a>g) c'4- | (c'!<)!b/a/ g/f/e/d/ e>d c2) | (GA/G/ ^F/G/e/d/ c2) z c' | %17
 (_d'>c' (3(ba3/2g/) a>g f2-) | (fe/_d/ c/d/A/B/ c4) | (3(c'_d'c' (3ba3/2g/ a>g f2-) | %20
 (fe/_d/ c/d/A/B/ c4) | (=B>cf>g a2 f2) | (3(=e/f/e/ ^d/4e/4g/4b/4 _d'>c' c'2 f'2) | %23
 (f'_d'bf a>g f2) | z/ (c/_d/c/ =B/c/a/g/ f4) | (9:8:9(=B/c/^c/d/e/=e/f/^f/g/ a2) =f2 | %26
 z/4 (=e/4f/4e/4 ^d/4e/4g/4b/4 _d'>c') .c'2!8va(!{/f'} !>!f''2- | %27
 (3(f''/_d''/b'/g'/4f'/4_d'/4b/4!8va)!g/4f/4_d/4B/4 F/>G/) A>G F2 | %28
 (14:8:14z/ (F/=E/F/A/G/_d/c/f/=e/a/g/_d'/c'/) f4 | (5:4:5(_e/f/e/=d/e/{eg} f>e eag>f) | %30
 (3(fe_d (3Pdc3/2B/ f2 e2) | (5:4:5(e/f/e/=d/e/{eg} f>e) (5:4:5(e/c'/g/b/a/ (3ecA) | %32
 (9:8:9(G/B/_d/f/e/a/g/c'/b/) a4 | (a>g (3fe3/2d/ e>d c2-) | (cB/A/ G/A/E/F/ G4) | %35
 (3(gag (3fe3/2d/ e>d c2-) | (cB/A/ G/A/E/F/ G4) | (^F>Gc>d e2 c2) | %38
 (3(=B/c/B/ ^A/4B/4d/4f/4 _a>g g2) c'2- | (c'afc e>d c2) | z/ (G/A/G/ ^F/G/e/d/ c4) | %41
 (G/A/=A/B/=B/c/^c/d/) (e2 =c2) | z/4 (=B/4c/4B/4 ^A/4B/4d/4f/4 _a>g g2)!8va(!{/c'} c''2- | %43
 (3(c''/a'/f'/!8va)!d'/4c'/4a/4f/4d/4c/4A/4F/4) (C/>D/ E>D C2) | %44
 (12:8:12z/ (G/^F/G/A/G/c/=B/e/d/_a/g/ c4) |] %45
V:2
 z2 |!ped! C,,G,[CE]G,!ped-up!!ped! C,G,[CEG]G,!ped-up! | %2
!ped! C,G,[=B,F]G,!ped-up!!ped! C,G,[CE]G,!ped-up! | %3
!ped! G,,G,[=B,F]G,!ped-up!!ped! C,G,[CE]G,!ped-up! | %4
!ped! G,,^F,EF,!ped-up!!ped! G,,G,[=B,D]G,!ped-up! | %5
!ped! C,G,[CE]G,!ped-up!!ped! C,G,[CEG]G,!ped-up! | %6
!ped! C,G,[=B,F]G,!ped-up!!ped! C,G,[CE]G,!ped-up! | %7
!ped! C,G,[=B,F]G,!ped-up!!ped! C,G,[CE]G,!ped-up! | %8
!ped! G,,G,[=B,F]G,!ped-up!!ped! C,G,[CE]G,!ped-up! | %9
!ped! C,,G,[CEG]G,!ped-up!!ped! C,G,[CEG]G,!ped-up! | %10
!ped! C,,G,[=B,F]G,!ped-up!!ped! C,G,[CE]G,!ped-up! | %11
!ped! G,,G,[=B,F]G,!ped-up!!ped! C,G,[CE]G,!ped-up! | %12
!ped! G,,^F,EF,!ped-up!!ped! G,,G,[=B,D]G,!ped-up! | %13
!ped! C,G,[CE]G,!ped-up!!ped! C,G,[CE]G,!ped-up! | %14
!ped! C,[G,B,]C=E!ped-up!!ped! F,,F,[A,CF]F,!ped-up! | %15
!ped! F,,F,[A,D]F,!ped-up!!ped! G,,G,C_E!ped-up! | %16
!ped! G,,G,[=B,=F]G,!ped-up!!ped! (C,,C,G,E)!ped-up! | %17
!ped! C,G,[B,=E]G,!ped-up!!ped! F,A,[CF]A,!ped-up! | %18
!ped! C,_A,[_DF]A,!ped-up!!ped! C,G,[C=E]G,!ped-up! |!ped! C,G,=EG,!ped-up!!ped! F,A,FC!ped-up! | %20
!ped! C,_A,[_DF]A,!ped-up!!ped! C,G,[C=E]G,!ped-up! | %21
!ped! =E,_B,CG!ped-up!!ped! [F,A,]CFC!ped-up! |!ped! [G,B,]C=EC!ped-up!!ped! A,CFC!ped-up! | %23
!ped! B,,G,[_DF]G,!ped-up!!ped! C,A,[CF]A,!ped-up! | %24
!ped! C,B,[C=E]B,!ped-up!!ped! F,A,[CF]A,!ped-up! |!ped! C,_B,C=E!ped-up!!ped! [F,A,]CFC!ped-up! | %26
!ped! [G,B,]C=EC!ped-up!!ped! A,CFC!ped-up! | %27
!ped! B,,G,[_DF]G,!ped-up!!ped! C,F,!ped-up!!ped![A,C]F,!ped-up! | %28
!ped! C,B,C=E!ped-up!!ped! [F,A,]CFC!ped-up! |!ped! _E,_DEG!ped-up!!ped! E,C[EA]C!ped-up! | %30
!ped! E,E[_DG]E!ped-up!!ped! E,C[EA]C!ped-up! |!ped! E,_DEG!ped-up!!ped! E,C[EA]C!ped-up! | %32
!ped! E,E[_DG]E!ped-up!!ped! [A,C]EAE!ped-up! |!ped! =B,,G,DF!ped-up!!ped! C,G,CE!ped-up! | %34
!ped! G,,E,[_A,C]E,!ped-up!!ped! G,,D,[G,=B,]D,!ped-up! | %35
!ped! G,,F,G,=B,!ped-up!!ped! G,,E,G,C!ped-up! | %36
!ped! G,,E,[_A,C]E,!ped-up!!ped! G,,D,[G,=B,]D,!ped-up! | %37
!ped! =B,,=F,G,D!ped-up!!ped! C,G,EG,!ped-up! |!ped! D,G,[=B,F]G,!ped-up!!ped! E,G,[CE]G,!ped-up! | %39
!ped! F,,D,[A,C]D,!ped-up!!ped! G,,E,[G,C]E,!ped-up! | %40
!ped! G,,F,G,=B,!ped-up!!ped! C,E,[G,C]E,!ped-up! | %41
!ped! =B,,F,G,=B,!ped-up!!ped! [C,E,]G,CG,!ped-up! |!ped! [D,F,]G,DG,!ped-up!!ped! E,G,CE!ped-up! | %43
!ped! F,,F,[A,D]F,!ped-up!!ped! G,,C,!ped-up!!ped![E,G,]C,!ped-up! | %44
!ped! [G,,,G,,]G,[DF]G,!ped-up!!ped! !arpeggio![C,G,E]4!ped-up! |] %45

